!!!COM: Frescobaldi, Girolamo
!!!CDT: 1583///-1643
!!!ONM: No. 12
!!!OTL: No. 12: Canzon Prima &agrave; 2. Canto E Basso
!!!OPR: Canzoni da sonare a una, due, tre et quattro, libro primo
!!!PPP: Venezia
!!!PDT: 1634
!!!URL: http://icking-music-archive.org/ByComposer/Frescobaldi.html
!!!ONB: Andrea Friggi, ed.
**kern	**kern	**kern
!Basso ad Organo	!Basso	!Canto
*staff3	*staff2	*staff1
*Icello	*Icello	*Ivioln
*clefF4	*clefF4	*clefG2
*k[]	*k[]	*k[]
*met(C)	*met(C)	*met(C)
*M4/4	*M4/4	*M4/4
*MM120	*MM120	*MM120
=1-	=1-	=1-
1c	1r	1cc
=2	=2	=2
2A\	1r	2cc\
4G\	.	2dd\
4F\	.	.
=3	=3	=3
1E	1r	2ee\
.	.	2gg\
=4	=4	=4
1D	1r	4ff\
.	.	4ee\
.	.	4ff\
.	.	4gg\
=5	=5	=5
2D\	1r	2ff\
2E\	.	2ee\
=6	=6	=6
2F\	1r	2.dd\
2G\	.	.
.	.	4dd\
=7	=7	=7
1C	1C	1ee
=8	=8	=8
2C/	2C/	1r
2D\	2D\	.
=9	=9	=9
2.E\	2.E\	1r
4G\	4G\	.
=10	=10	=10
1F	4F\	1cc
.	4E\	.
.	4F\	.
.	4G\	.
=11	=11	=11
2F\	2F\	2.cc\
2E\	2E\	.
.	.	8dd\L
.	.	8ee\J
=12	=12	=12
1D	1D	4ff\
.	.	4ee\
.	.	4ff\
.	.	4gg\
=13	=13	=13
2C/	2C/	2.ee\
2c\	2c\	.
.	.	4ff\
=14	=14	=14
2c\	2c\	4gg\
.	.	4aa\
2B-\	2B-\	2gg\
=15	=15	=15
1A	1A	2gg\
.	.	2ff#\
=16	=16	=16
1G	1G	2gg\
.	.	2dd\
=17	=17	=17
1C	1C	1ee
=18	=18	=18
*M3/2	*M3/2	*M3/2
1G	2.G\	1.r
.	4G\	.
2A\	4A\	.
.	4B\	.
=19	=19	=19
2.C/	2.c\	2.g/
4E\	4E\	4g/
4F\	4F\	4a/
4G\	4G\	4b\
=20	=20	=20
1.A	4.A\	2.cc\
.	8B\	.
.	4c\	.
.	4C/	4ee\
.	4D\	4ff\
.	4E\	4gg\
=21	=21	=21
2.F\	4.F\	2.aa\
.	8F\	.
.	4G\	.
4D\	4D\	4aa\
2E\	2E\	2gg#\
=22	=22	=22
1.AA	1AA	1aa
.	2r	2r
=23	=23	=23
2.A\	2.A\	1.r
4A\	4A\	.
2G\	4B\	.
.	4c\	.
=24	=24	=24
2D\	4d\	2.dd\
.	4D\	.
2G\	4G\	.
.	4F\	4dd\
2E\	2E\	4ee\
.	.	4ff\
=25	=25	=25
2E\	4r	2gg\
.	4G\	.
2D\	4A\	2ff\
.	4B\	.
2C/	2c\	2ee\
=26	=26	=26
2D\	4r	4.dd\
.	4D\	.
.	.	8dd\
4E\	4E\	4cc\
4F\	4F\	4dd\
2G\	2G\	2b\
=27	=27	=27
2AA/	4r	4cc\
.	4AA/	4aa\
4BB/	4BB/	4gg\
4C/	4C/	4aa\
2D\	2D\	2ff#\
=28	=28	=28
2GG/	4r	4gg\
.	4GG/	4gg\
4AA/	4AA/	4ff\
4BB/	4BB/	4gg\
2C/	2C/	2ee\
=29	=29	=29
1D	4D\	4ff\
.	4E\	4ff\
.	4F\	4ee\
.	4G\	4dd\
2AA/	2A\	2cc#\
=30	=30	=30
*met(C)	*met(C)	*met(C)
*M4/4	*M4/4	*M4/4
1D	1D	1dd
=31	=31	=31
1G	1r	2r
.	.	2b\
=32	=32	=32
1E	1r	4.ee\
.	.	8ff#\
.	.	8gg\L
.	.	8ff\
.	.	8ff\
.	.	8ee\J
=33	=33	=33
1D	2r	1ff#
.	2D\	.
=34	=34	=34
1BB	2.BB/	1r
.	4BB/	.
=35	=35	=35
2C/	2C/	2r
2EE/	2EE/	[2gg\
=36	=36	=36
1GG	1GG	4gg\]
.	.	16ff\LL
.	.	16ee\
.	.	16dd\
.	.	16cc\JJ
.	.	2dd\
=37	=37	=37
2C/	2r	1ee
4c\	4c\	.
8c\L	8c\L	.
8c\J	8c\J	.
=38	=38	=38
4B\	4B\	1r
8c\L	8c\L	.
8B\J	8B\J	.
2A\	8A\L	.
.	8AA\	.
.	8BB\	.
.	8C\J	.
=39	=39	=39
2D\	4.D\	2r
.	8D\	.
2G\	2GG/	4gg\
.	.	8gg\L
.	.	8gg\J
=40	=40	=40
2C/	4r	4ee\
.	4C/	8ff\L
.	.	8ee\J
4G\	4G\	4dd\
4F\	4F\	8ee\L
.	.	8ff\J
=41	=41	=41
4E\	4E\	4gg\
8F\L	8F\L	4ff\
8G\J	8G\J	.
4A\	4A\	4ee\
4AA/	4AA/	8aa\L
.	.	8gg\J
=42	=42	=42
2D\	2D\	4ff#\
.	.	8ee\L
.	.	8ff#\J
4G\	4G\	2gg\
8G\L	8G\L	.
8G\J	8G\J	.
=43	=43	=43
4E\	4E\	1r
8F\L	8F\L	.
8E\J	8E\J	.
4D\	4D\	.
8E\L	8E\L	.
8F\J	8F\J	.
=44	=44	=44
2G\	4G\	4gg\
.	4GG/	8gg\L
.	.	8gg\J
2C/	2C/	4ee\
.	.	8ff\L
.	.	8ee\J
=45	=45	=45
4G\	1r	4dd\
4F\	.	8ee\L
.	.	8ff\J
4E\	.	8gg\L
.	.	8aa\
4D\	.	8ff\
.	.	8gg\J
=46	=46	=46
2C/	1r	4ee\
.	.	2aa\
2BB/	.	.
.	.	4gg#\
=47	=47	=47
4AA/	4r	2aa\
8A\L	8A\L	.
8G\J	8G\J	.
4F#\	4F#\	4r
8E\L	8E\L	8dd\L
8F#\J	8F#\J	8cc\J
=48	=48	=48
4G\	4G\	4b\
8E\L	8E\L	8a/L
8D\J	8D\J	8b/J
4C/	4C/	4cc\
8BB/L	8BB/L	8aa\L
8C/J	8C/J	8gg\J
=49	=49	=49
4D\	4D\	4ff#\
8C/L	8C/L	8ee\L
8D/J	8D/J	8ff#\J
2GG/	2GG/	8gg\L
.	.	8ffn\
.	.	8ee\
.	.	8dd\J
=50	=50	=50
4AA/	1r	4cc#\
4GG/	.	2dd\
2AA/	.	.
.	.	4cc#\
=51	=51	=51
1D	2r	1dd
.	2D\	.
=52	=52	=52
2G\	8GG/L	1r
.	8AA/	.
.	8BB/	.
.	8C/J	.
2D\	8D\L	.
.	8D\	.
.	8E\	.
.	8F#\J	.
=53	=53	=53
2GG/	8G/L	1r
.	8GG/	.
.	8BB/	.
.	8C/J	.
4D\	4D\	.
8C/L	8C/L	.
8BB/J	8BB/J	.
=54	=54	=54
4AA/	4AA/	1r
4GG/	4GG/	.
2AA/	2AA/	.
=55	=55	=55
2D\	4r	2dd\
.	4D\	.
4.G\	8G\L	4dd\
.	8A\	.
.	8G\	4dd\
8F\	8F\J	.
=56	=56	=56
4.E\	8E\L	4.gg\
.	8F\	.
.	8E\	.
8D\	8D\J	8ff\
4C/	4C/	4.ee\
4c\	4c\	.
.	.	16ff\LL
.	.	16ee\JJ
=57	=57	=57
2G\	4c\	4dd\
.	4B\	4dd\
2C/	2c\	2ee\
=58	=58	=58
2G\	4r	4r
.	4G\	4dd\
4G\	4G\	8gg\L
.	.	8aa\
4G\	4G\	8gg\
.	.	8ff\J
=59	=59	=59
4.c\	4.c\	8ee\L
.	.	8ff\
.	.	8ee\
8B\	8B\	8dd\J
4A\	4A\	4cc#\
8G\L	8G\L	4dd\
8F\J	8F\J	.
=60	=60	=60
4E\	4E\	4dd\
4AA/	4AA/	4cc#\
[2D\	2D\	4dd\
.	.	4a/
=61	=61	=61
4D\]	4r	8dd\L
.	.	8ee\
4D\	4D\	8dd\
.	.	8cc\J
4.G\	8G\L	8b\L
.	8A\	8cc\
.	8G\	8b\
8F\	8F\J	8a\J
=62	=62	=62
4.E\	4.E\	4.g/
8D\	8D\	8b\
4.C/	4.C/	8ee\L
.	.	8ff\
.	.	8ee\
8BB/	8BB/	8dd\J
=63	=63	=63
2AA/	4AA/	4cc\
.	8BB/L	8dd\L
.	8C/J	8ee\J
4D\	4D\	4ff\
4E\	4E\	4ee\
=64	=64	=64
4F\	4F\	2dd\
4G\	4G\	.
2C/	2C/	2ee\
=65	=65	=65
1c	2r	1r
.	2c\	.
=66	=66	=66
1B	2.B\	2r
.	.	[2gg\
.	8c\L	.
.	8B\J	.
=67	=67	=67
1A	1A	4gg\]
.	.	8ff#\L
.	.	8ee\J
.	.	2ff#\
=68	=68	=68
[1G	2G\	2gg\
.	[2G\	2b\
=69	=69	=69
2G\]	2G\]	4cc#\
.	.	8dd\L
.	.	8ee\J
2F\	2F\	[2dd\
=70	=70	=70
1E	1E	4dd\]
.	.	8cc\L
.	.	8b\J
.	.	8cc\L
.	.	8dd\
.	.	8ee\
.	.	8a\J
=71	=71	=71
2AA/	4r	4r
.	4AA/	4cc\
4AA/	4AA/	4cc\
4BB/	4BB/	4b\
=72	=72	=72
4C/	4C/	4.a/
4D\	4D\	.
.	.	8a/
2GG/	2GG/	2b\
=73	=73	=73
2G\	4r	4dd\
.	4G\	4.ee\
4.A\	4.A\	.
.	.	8dd\
.	.	[4cc\
8G\	8G\	.
=74	=74	=74
4.F\	4.F\	8cc\L]
.	.	8a\J
.	.	4.dd\
8D\	8D\	.
4.G\	4.G\	.
.	.	8cc\
.	.	[4b\
8F\	8F\	.
=75	=75	=75
4.E\	4.E\	8b/L]
.	.	8g/J
.	.	4.gg\
8C/	8C/	.
2c\	4.c\	.
.	.	8ff\
.	.	[4ee\
.	8B\	.
=76	=76	=76
4.A\	4.A\	8ee\L]
.	.	8cc\J
.	.	4.ff\
8F\	8F\	.
4.B-\	4.B-\	.
.	.	8ee\
.	.	[4dd\
8A\	8A\	.
=77	=77	=77
4.G\	4.G\	8dd\L]
.	.	16cc\L
.	.	16dd\JJ
.	.	4.ee\
8E\	8E\	.
4.A\	4.A\	.
.	.	8dd\
.	.	[4cc#\
8G\	8G\	.
=78	=78	=78
4.F#\	4.F#\	8cc#\L]
.	.	8a\J
.	.	2dd\
8D\	8D\	.
2AA/	4A\	.
.	4AA/	4cc#\
=79	=79	=79
1D	1D	1dd
=80	=80	=80
2G\	4r	2r
.	8G\L	.
.	8F\J	.
4E\	8E/L	4g/
.	8D/	.
4C/	8C/	8g/L
.	8BB/J	8g/J
=81	=81	=81
2AA/	4AA/	4.cc\
.	8A\L	.
.	8G\J	8b\
4F\	8F\L	4a/
.	8E\	.
4D\	8D\	8b\L
.	8C\J	8cc\J
=82	=82	=82
4BB/	4BB/	8dd\L
.	.	8ee\
4AA/	4AA/	8cc\
.	.	8dd\J
2E\	2E\	2b\
=83	=83	=83
4.A\	4r	2r
.	8A\L	.
8B\	8B\J	.
2c\	4c\	4r
.	8B\L	8ee\L
.	8A\J	8ff\J
=84	=84	=84
4.G\	8G\L	4gg\
.	8F\	.
.	8G\	8ff\L
8A\	8A\J	8ee\J
2B-\	4B-\	8dd\L
.	.	8ff\
.	8A\L	8dd\
.	8G\J	8ee\J
=85	=85	=85
2F\	2F\	8ff\L
.	.	8gg\
.	.	8aa\
.	.	8ff\J
2C/	2r	2gg\
=86	=86	=86
2c\	2r	4r
.	.	8gg\L
.	.	8ff\J
4C/	4C/	8ee\L
.	.	8dd\
8C/L	8C/L	8cc\
8C/J	8C/J	8b\J
=87	=87	=87
4.F\	4.F\	4a/
.	.	8aa\L
8E\	8E\	8gg\J
4D\	4D\	8ff\L
.	.	8ee\
8E\L	8E\L	8dd\
8F\J	8F\J	8cc\J
=88	=88	=88
4G\	4G\	4b\
4F\	4F\	2dd\
4E\	4E\	.
4AA/	4AA/	4cc#\
=89	=89	=89
2D\	4D\	2r
.	8d\L	.
.	8c\J	.
4.G\	8B\L	4dd\
.	8A\	.
.	8G\	8dd\L
8F\	8F\J	8dd\J
=90	=90	=90
4.E\	4.E\	4.gg\
8D\	8D\	8ff\
4C/	4C/	4ee\
4c\	8c\L	8ff\L
.	8B\J	8gg\J
=91	=91	=91
4A\	8A\L	4aa\
.	8G\	.
4F\	8F\	8aa\L
.	8E\J	8gg\J
4D\	4D\	8ff\L
.	.	8ee\
8E\L	8E\L	8dd\
8F\J	8F\J	8cc\J
=92	=92	=92
4.G\	8G\L	8b\L
.	8A\	8dd\
.	8G\	8ee\
8F\	8F\J	8ff\J
4E\	8E/L	8gg\L
.	8D/	8ff\
4C/	8C/	8ee\
.	8BB/J	8dd\J
=93	=93	=93
4AA/	4AA/	8cc\L
.	.	8dd\
4EE/	4EE/	8ee\
.	.	8cc\J
2GG/	2GG/	2dd\
=94	=94	=94
0C	0C	0cc
==	==	==
*-	*-	*-
!!!ENC: Craig Stuart Sapp
!!!END: 2004/12/14/
